src/assets/Vector (53).svg

<svg width="69" height="78" viewBox="0 0 69 78" fill="none" xmlns="http://www.w3.org/2000/svg">
<path fill-rule="evenodd" clip-rule="evenodd" d="M24.1559 0.17456C20.9744 0.911583 18.1011 2.64507 16.2305 4.95614L15.3778 6.00961L13.878 6.10778C7.75392 6.50838 2.80405 10.5459 1.14024 16.4974C0.802594 17.7052 0.799235 17.819 0.795111 28.3874C0.791752 36.8949 0.832068 39.1741 0.994249 39.6316C1.60143 41.3439 3.47766 42.6577 5.33144 42.6684C5.87647 42.6714 6.4693 42.6275 6.64905 42.5705L6.9757 42.467L6.97829 56.6919C6.9812 72.3525 6.96883 72.1234 7.91809 73.9303C8.54467 75.1228 10.0362 76.6168 11.1368 77.1545C12.937 78.0336 12.2215 78.0014 29.959 77.9994C40.6843 77.998 46.5353 77.9432 46.9864 77.8395C48.9417 77.39 51.0431 75.7514 51.9998 73.9303C52.7309 72.5387 52.9366 71.3209 52.9396 68.3634L52.9422 65.8101L57.2563 65.8065C59.6747 65.8043 61.8724 65.7333 62.2577 65.6447C64.9928 65.0159 67.3965 62.5454 67.9891 59.7539C68.3135 58.2254 68.3135 32.085 67.9891 30.5565C67.3931 27.7494 65.0068 25.2981 62.2534 24.6647C61.8732 24.5772 59.659 24.5061 57.2563 24.5039L52.9422 24.5003V22.1756V19.851L53.459 19.4394C53.7432 19.2131 54.2526 18.614 54.591 18.1081C56.6796 14.9864 56.2944 11.027 53.6488 8.4222C52.5867 7.3765 51.5689 6.78093 50.2644 6.44177C49.2189 6.16998 47.3613 6.15519 46.3756 6.41082L45.6884 6.58917L44.6194 5.52213C44.0314 4.93525 43.2016 4.26866 42.7754 4.04092C41.1613 3.17829 38.9499 2.92296 37.149 3.39124L36.2573 3.62294L35.252 2.84827C34.0562 1.9268 31.9013 0.835518 30.4171 0.400011C29.015 -0.0115629 25.5052 -0.137931 24.1559 0.17456ZM25.2814 3.17021C22.4102 3.59123 19.6405 5.34043 18.0402 7.74326C17.0468 9.23483 17.0014 9.25678 14.9071 9.25678C12.742 9.25678 11.2979 9.58924 9.57441 10.4842C7.24646 11.6931 5.38382 13.8527 4.46892 16.4032L3.9978 17.7169L3.95351 28.0063C3.92923 33.6654 3.94832 38.452 3.99582 38.6433C4.09661 39.0482 4.9098 39.5899 5.41803 39.5907C5.8864 39.5915 6.60125 39.2108 6.76633 38.8729C6.83948 38.723 6.9337 35.6009 6.9757 31.9348L7.05205 25.269L7.44926 24.8727C7.77072 24.5519 8.07401 24.4481 9.0393 24.3285C11.8301 23.9828 13.805 22.7206 15.0779 20.4694C15.5775 19.5855 16.3833 18.7812 17.0053 18.5451C17.5711 18.3303 18.7485 18.3742 19.527 18.639C19.9086 18.7687 20.591 19.1913 21.0431 19.5777C21.4953 19.9643 22.3119 20.4926 22.8578 20.7517C23.7512 21.1758 23.9957 21.2229 25.3012 21.2229C26.6132 21.2229 26.8496 21.1767 27.7721 20.7405C28.333 20.4752 29.0948 19.9797 29.4648 19.6393C30.4689 18.7154 31.2636 18.4102 32.676 18.4062C37.0146 18.394 39.8491 20.4037 40.4106 23.8905C40.4984 24.4355 40.5707 26.6187 40.5713 28.7421L40.5725 32.6028L41.0189 33.0484C41.6349 33.6633 42.4116 33.6633 43.0276 33.0484L43.474 32.6028V25.8176C43.474 21.9583 43.5359 18.8702 43.6174 18.6561C44.0093 17.6271 44.9831 17.3797 46.318 17.9701C46.8415 18.2015 47.3804 18.3015 48.1318 18.3067C50.6512 18.3238 52.5786 16.5831 52.7542 14.1321C52.8483 12.8189 52.5207 11.8009 51.7068 10.8781C50.3075 9.29123 48.1825 8.89048 46.1676 9.83344C45.5911 10.1031 44.9648 10.3238 44.7756 10.3238C44.2452 10.3238 43.6593 9.76988 43.1733 8.80893C42.0336 6.55518 39.4507 5.65429 37.1562 6.71005C35.8063 7.33138 35.5672 7.28214 34.2781 6.11891C31.571 3.67584 28.561 2.68928 25.2814 3.17021ZM46.6509 27.2441C46.6066 32.8653 46.5909 33.1426 46.2783 33.8174C45.8478 34.7468 45.0112 35.6535 44.2472 36.0189L43.6303 36.314L43.6284 48.7804C43.6266 62.1716 43.6338 62.045 42.8577 62.4596C42.6723 62.5585 42.2969 62.6395 42.0233 62.6395C41.7496 62.6395 41.3742 62.5585 41.1888 62.4596C40.4124 62.0448 40.4198 62.1741 40.4198 48.7589V36.2708L40.0635 36.1815C39.447 36.0271 38.32 34.8977 37.8704 33.9838L37.4419 33.1128L37.3655 28.4636C37.2997 24.4553 37.2531 23.7485 37.0274 23.337C36.4387 22.2636 35.3146 21.7284 33.2102 21.5193L32.1854 21.4174L31.3809 22.1198C29.6859 23.6 27.658 24.3597 25.3768 24.3696C23.0534 24.3797 21.2197 23.7271 19.3402 22.2215C18.8117 21.7981 18.3331 21.4516 18.2769 21.4516C18.2205 21.4516 17.8209 21.9936 17.3884 22.6563C15.8436 25.0239 13.5106 26.5818 10.3736 27.3407C10.2221 27.3775 10.1827 31.6604 10.1827 48.1229V68.8588H21.8769H33.5712L34.0176 69.3044C34.6462 69.9318 34.6462 70.8345 34.0176 71.4619L33.5712 71.9075H22.0297C15.6818 71.9075 10.4881 71.9445 10.4881 71.9898C10.4881 72.0351 10.6214 72.3331 10.7845 72.6522C11.1525 73.3723 12.0111 74.1375 12.9237 74.559C13.6143 74.878 13.7187 74.8803 29.4981 74.9216C40.5329 74.9504 45.6225 74.9123 46.1804 74.7968C47.234 74.5785 48.3173 73.8396 48.9335 72.9192C49.2066 72.5115 49.4298 72.1171 49.4298 72.0427C49.4298 71.9683 48.3249 71.9075 46.9747 71.9075H44.5195L44.0731 71.4619C43.4446 70.8345 43.4446 69.9318 44.0731 69.3044L44.5195 68.8588H47.1274H49.7352V45.1171V21.3754H48.2162H46.6972L46.6509 27.2441ZM52.9422 29.0626V30.5977H56.9867H61.0311L61.5299 31.0425L62.0286 31.4873V45.1552V58.8231L61.5299 59.2679L61.0311 59.7127H56.9867H52.9422V61.2477V62.7826L57.2563 62.734C61.2626 62.6887 61.6201 62.6623 62.2655 62.3642C63.2404 61.914 64.0405 61.1673 64.52 60.26L64.9302 59.4841L64.9714 45.3335L65.0126 31.183L64.6061 30.2788C64.1461 29.2555 63.3248 28.4349 62.2763 27.9509C61.6175 27.6468 61.2835 27.622 57.2563 27.5764L52.9422 27.5278V29.0626ZM16.9784 30.5893C16.8104 30.658 16.5355 30.8666 16.3675 31.053C16.0671 31.3861 16.0613 31.6391 16.0166 46.2001C15.9848 56.5537 16.0212 61.1805 16.1375 61.5807C16.229 61.8954 16.4712 62.2623 16.6757 62.3962C17.1143 62.6829 17.9487 62.7132 18.4237 62.4596C19.2078 62.0405 19.1927 62.3547 19.1921 46.4939C19.1916 32.0177 19.1858 31.7316 18.8867 31.2417C18.4597 30.5426 17.7154 30.2882 16.9784 30.5893ZM29.1954 30.5893C29.0274 30.658 28.7525 30.8666 28.5845 31.053C28.2842 31.3861 28.2784 31.6391 28.2336 46.2001C28.2018 56.5537 28.2382 61.1805 28.3546 61.5807C28.446 61.8954 28.6882 62.2623 28.8927 62.3962C29.3313 62.6829 30.1657 62.7132 30.6407 62.4596C31.4248 62.0405 31.4097 62.3547 31.4091 46.4939C31.4087 32.0177 31.4029 31.7316 31.1037 31.2417C30.6767 30.5426 29.9324 30.2882 29.1954 30.5893ZM52.9422 45.1552V56.664H55.9201H58.898V45.1552V33.6464H55.9201H52.9422V45.1552ZM38.3582 68.8834C37.8377 69.169 37.5251 69.674 37.5216 70.2348C37.5173 70.9113 37.8692 71.4211 38.5309 71.697C38.9733 71.8814 39.1174 71.8814 39.5598 71.697C40.4776 71.3142 40.808 70.456 40.39 69.5405C40.0691 68.8373 39.0452 68.5062 38.3582 68.8834Z" fill="white"/>
</svg>

<svg xmlns="http://www.w3.org/2000/svg" width="69" height="78" fill="none" viewBox="0 0 69 78"><path fill="#fff" fill-rule="evenodd" d="M24.156.175c-3.182.737-6.055 2.47-7.925 4.781l-.853 1.054-1.5.098c-6.124.4-11.074 4.438-12.738 10.39-.337 1.207-.34 1.321-.345 11.89-.003 8.507.037 10.786.2 11.244.606 1.712 2.483 3.026 4.336 3.036.545.003 1.138-.04 1.318-.097l.327-.104.002 14.225c.003 15.66-.01 15.431.94 17.238.627 1.193 2.118 2.687 3.219 3.224 1.8.88 1.085.847 18.822.845 10.725-.001 16.576-.056 17.027-.16 1.956-.449 4.057-2.088 5.014-3.909.73-1.391.937-2.61.94-5.567l.002-2.553 4.314-.004c2.419-.002 4.616-.073 5.002-.161 2.735-.63 5.139-3.1 5.731-5.891.325-1.529.325-27.669 0-29.197-.596-2.808-2.982-5.259-5.736-5.892-.38-.088-2.594-.159-4.997-.161l-4.314-.004v-4.649l.517-.412c.284-.226.794-.825 1.132-1.33 2.089-3.123 1.703-7.082-.942-9.687-1.062-1.046-2.08-1.641-3.385-1.98-1.045-.272-2.903-.287-3.888-.031l-.688.178-1.069-1.067c-.588-.587-1.417-1.253-1.844-1.481-1.614-.863-3.825-1.118-5.626-.65l-.892.232-1.005-.775C34.056 1.927 31.902.836 30.417.4c-1.402-.412-4.912-.538-6.261-.225M25.28 3.17c-2.87.421-5.64 2.17-7.24 4.573-.994 1.492-1.04 1.514-3.134 1.514-2.165 0-3.61.332-5.333 1.227-2.328 1.21-4.19 3.369-5.105 5.92l-.471 1.313-.044 10.29c-.025 5.658-.006 10.445.042 10.636.1.405.914.947 1.422.948.468 0 1.183-.38 1.348-.718.073-.15.168-3.272.21-6.938l.076-6.666.397-.396c.322-.321.625-.425 1.59-.545 2.791-.345 4.766-1.607 6.039-3.859.5-.884 1.305-1.688 1.927-1.924.566-.215 1.744-.17 2.522.094.382.13 1.064.552 1.516.939a10 10 0 0 0 1.815 1.174c.893.424 1.138.47 2.443.47 1.312 0 1.549-.045 2.471-.482.561-.265 1.323-.76 1.693-1.1 1.004-.925 1.799-1.23 3.211-1.234 4.339-.012 7.173 1.998 7.735 5.485.087.545.16 2.728.16 4.851l.002 3.86.446.446c.616.615 1.393.615 2.009 0l.446-.445v-6.785c0-3.86.062-6.948.143-7.162.392-1.029 1.366-1.276 2.701-.686.524.232 1.062.332 1.814.337 2.52.017 4.447-1.724 4.622-4.175.094-1.313-.233-2.331-1.047-3.254-1.4-1.587-3.525-1.988-5.54-1.045-.576.27-1.202.49-1.391.49-.53 0-1.117-.553-1.603-1.514-1.14-2.254-3.722-3.155-6.017-2.099-1.35.621-1.589.572-2.878-.591-2.707-2.443-5.717-3.43-8.997-2.949m21.37 24.074c-.044 5.621-.06 5.899-.373 6.573-.43.93-1.267 1.837-2.03 2.202l-.618.295-.002 12.466c-.001 13.392.006 13.265-.77 13.68-.186.099-.561.18-.835.18s-.649-.081-.834-.18c-.777-.415-.77-.286-.77-13.701V36.27l-.355-.09c-.617-.154-1.744-1.283-2.194-2.197l-.428-.871-.077-4.65c-.065-4.008-.112-4.715-.338-5.126-.588-1.073-1.712-1.609-3.817-1.818l-1.025-.102-.804.703c-1.695 1.48-3.723 2.24-6.004 2.25-2.324.01-4.157-.643-6.037-2.149-.528-.423-1.007-.77-1.063-.77s-.456.543-.889 1.205c-1.544 2.368-3.877 3.926-7.014 4.685-.152.037-.191 4.32-.191 20.782v20.736H33.57l.447.445c.628.628.628 1.53 0 2.158l-.447.445H22.03c-6.348 0-11.542.038-11.542.083s.133.343.297.662c.367.72 1.226 1.486 2.139 1.907.69.319.795.321 16.574.363 11.035.028 16.125-.01 16.682-.125 1.054-.218 2.137-.957 2.754-1.878.273-.407.496-.802.496-.876 0-.075-1.105-.136-2.455-.136h-2.456l-.446-.445c-.628-.627-.628-1.53 0-2.158l.447-.445h5.215V21.375h-3.038zm6.291 1.819v1.535h8.089l.499.445.499.444v27.336l-.5.445-.498.445h-8.089v3.07l4.314-.049c4.007-.045 4.364-.072 5.01-.37a4.85 4.85 0 0 0 2.254-2.104l.41-.776.041-14.15.042-14.151-.407-.904a4.68 4.68 0 0 0-2.33-2.328c-.659-.304-.993-.329-5.02-.375l-4.314-.048zm-35.964 1.526c-.168.069-.443.278-.61.464-.3.333-.307.586-.351 15.147-.032 10.354.004 14.98.12 15.38.092.315.334.682.539.816.438.287 1.273.317 1.748.064.784-.42.769-.105.768-15.966 0-14.476-.006-14.762-.305-15.252-.427-.7-1.172-.954-1.909-.653m12.217 0c-.168.069-.442.278-.61.464-.3.333-.307.586-.351 15.147-.032 10.354.004 14.98.12 15.38.092.315.334.682.539.816.438.287 1.273.317 1.748.064.784-.42.769-.105.768-15.966 0-14.476-.006-14.762-.305-15.252-.427-.7-1.172-.954-1.909-.653m23.747 14.566v11.509h5.956V33.646h-5.956zM38.358 68.883c-.52.286-.833.791-.836 1.352-.005.676.347 1.186 1.009 1.462.442.184.586.184 1.029 0 .918-.383 1.248-1.241.83-2.157-.32-.703-1.345-1.034-2.032-.657" clip-rule="evenodd"/></svg>
